X:1
T:Title
%%score { ( 1 4 ) | ( 2 3 ) }
L:1/8
M:6/4
K:Db
V:1 treble nm="Grand Piano"
V:4 treble 
V:2 bass 
V:3 bass 
V:1
 z6 z4 D2 | F2 F2 F2 F2 _F2 =F2 | A2 G2 F2 [CE]4 [CE]2 | [CG]2 [CG]2 [CG]2 [CG]2 [CF]2 [CG]2 | %4
 [CB]2 [CA]2 [CG]2 F4 D2 | F2 F2 F2 [FA]2 [_F=G]2 [=FA]2 | [Fd]2 [Gc]2 [Ad]2 B4 B2 | %7
 A2 d2 F2 [CA]2 [A,CG]2[K:bass] [G,CE]2 |[M:5/4] [F,D]2- [F,D]2- [F,D]6 | %9
[M:1/4][K:treble] [A,GA]2 |[M:6/4] .[Fd]6 .[DFA]4 [DFA]2 | G2- [EG-]2 [DEG-]2 [CEG]4 [CEG]2 | %12
 e2 d2 c2 B2 c2 [GB]2 | .F6 .A6 | [Fd]2 [Fc]2 [Fd]2 [FA]4 [Fd]2 | e2 =d2 e2 B4 B2 | %16
 A2 d2 F2 [CA]2 [CG]2 [CE]2 |[M:5/4] D2- D2- D6 |] %18
V:2
 z6 z4 [D,F,]2 | [D,A,D]2 [D,A,D]2 [D,A,D]2 [D,A,D]2 [D,=G,D]2 [D,A,D]2 | %2
 [D,F,D]2 [D,B,D]2 [D,A,D]2 [A,,A,]4 [A,,A,]2 | %3
 [A,,E,]2 [A,,E,]2 [A,,E,]2 [A,,A,]2 [A,,A,]2 [A,,A,]2 | %4
 [A,,E,]2 [A,,E,]2 [A,,A,]2 [D,A,D]4 [D,F,]2 | [D,A,D]2 [D,A,D]2 [D,A,D]2 [D,D]2 [D,D]2 [D,D]2 | %6
 [D,A,]2 [E,A,]2 [F,D]2[K:treble] [G,DG]4 [=G,D_F]2 | %7
 [A,DF]2 [A,DF]2 [A,D]2[K:bass] [A,,E,]2 A,,2 A,,2 |[M:5/4] D,2- D,2- D,6 |[M:1/4] A,,2 | %10
[M:6/4] z2[K:treble] c2 B2[K:bass] z2 B2 D,2 | A,2 C2 B,2 A,4 A,,2 | [A,,A,]6 [A,,A,]4 [C,A,]2 | %13
 [D,A,]2 [D,D]2 [E,C]2 [F,D]2 [E,C]2 [D,D]2 | [D,A,]2 [D,A,]2 [D,A,]2 [D,D]4 [D,_C]2 | %15
 [G,B,G]2 [G,B,G]2 [G,B,G]2 [G,DG]4 [=G,D_F]2 | %16
 [A,DF]2 [A,DF]2[K:bass] [A,D]2 [A,,E,]2 [A,,A,]2 [A,,G,]2 |[M:5/4] [D,F,]2- [D,F,]2- [D,F,]6 |] %18
V:3
 x12 | x12 | x12 | x12 | x12 | x12 | x6[K:treble] x6 | x6[K:bass] x6 |[M:5/4] x10 |[M:1/4] x2 | %10
[M:6/4] [D,A,]6[K:treble][K:bass] .D,6 | x12 | x12 | x12 | x12 | x12 | x4[K:bass] x8 | %17
[M:5/4] x10 |] %18
V:4
 x12 | x12 | x12 | x12 | x12 | x12 | x12 | x10[K:bass] x2 |[M:5/4] x10 |[M:1/4][K:treble] x2 | %10
[M:6/4] x12 | .[CE]6 z6 | G6 .G6 | A2- [FA-]2 [GA]2 z2 G2 [FA]2 | x12 | x12 | x12 |[M:5/4] x10 |] %18

